X:1
T:Title
%%score 1 ( 2 3 )
L:1/8
Q:1/4=107
M:4/4
K:F
V:1 treble nm="Grand Piano, Staff 1"
V:2 bass nm="Choir Pad, Old Martyrs, CM"
V:3 bass 
V:1
 D2 [DF]2 D2 [EA]2 | [DF]2 [A,E]2 D2 [^CA]2 | [DA]2 [Ec]2 [FA]2 [FB]2 | [Fd]2 [FA]6 | %4
w: By~Psalms~(Edinburgh,~Scotland:~1615) * * *||||
 [CA]2 [Cc]2 [CG]2 [CA]2 | [DF]2 [A,E]2 D2 [^CA]2 | [Cc]2 [DB]2 [DG]2 [DB]2 | [^CA]2 D6- | %8
w: ||||
 D2 z2 z4 |] %9
w: |
V:2
 F,2 [D,A,]2 [D,F,]2 [^C,A,]2 | [D,A,]2 [C,E,]2 F,G, [A,,A,]2 | [D,F,]2 [C,G,]2 F,2 [D,B,]2 | %3
 [B,,B,]2 [F,C]6 | F,2 [E,G,]2 [C,E,]2 F,2 | [D,A,]2 [C,E,]2 F,G, [A,,A,]2 | %6
 E,^F, [G,,G,]2 [B,,G,]2 [G,,E,]2 | [A,,E,]2 [D,F,]6- | [D,F,]2 z2 z4 |] %9
V:3
 x8 | z4 B,,2 z2 | x8 | x8 | x8 | z4 B,,2 z2 | A,,2 z2 z4 | x8 | x8 |] %9

